X:98
T:The fit's come o'er me now
Z:Jack Campin - http://www.campin.me.uk
S:Blaikie MS (NLS MS.1578) p29, Blaikie #92
M:2/4
L:1/8
V:1 midi program 1 74
V:2 midi program 1 46 bass middle = d transpose -24
Q:1/4=108
K:C
[V:1] G|cc``df|ec``dB|cc``de|c2``GG| cc``de |fe  de/c/|BG`AB|c2  cA |
[V:2] z|c'2 bg|c'2`g2|c'2 g2|c'2 c2| c'2 c'2|c'2 c'2  |g2 g2|c'2 c'2|
%
[V:1]  _BG``GE|F>G`AA|GG``AB|c2  cA|_BG``GE |F>G`AA   |GG`AB|c3    |]
[V:2]   c2  c2|f2  f2|g2  g2|c2  c2| c2  c2 |f2  f2   |g2 G2|c3    |]
W:Transcription (c) Jack Campin 2009, no mirroring or republication without permission

